!!!OTL: ALLERSCHOENSTER ENGEL
!!!ARE: Europa, Mitteleuropa, Deutschland
!!!SCT: F0142
!!!YEM: Copyright 1995, estate of Helmut Schaffrath.
**kern
*ICvox
*Ivox
*M2/4
*k[]
*C:
=1
{4c
4B
=2
8c
8G
8E
8C
=3
4c
4B
=4
4.c}
{8G
=5
8A
8A
8A
8A
=6
8G
8G
8c
8e
=7
4f
8e
8e
=8
4d
8r}
{8F
=9
4G
8G
8B-
=10
8A
8c
4F}
=11
{8A
8A
8A
8c
=12
8B
8d
8G}
{8G
=13
4c
8.e
16d
=14
8c
8B
8c
8E
=15
4F
4G
=16
4C
4r}
==
!!!AGN: Liebes - Lied
!!!ONB: ESAC (Essen Associative Code) Database: FINK
!!!AMT: simple duple
!!!AIN: vox
!!!EED: Helmut Schaffrath
!!!EEV: 1.0
*-
